src/assets/svg/icons/sass-icon.svg

<svg width="80px" height="80px" viewBox="0 0 101 76" fill="none" xmlns="http://www.w3.org/2000/svg">
<path d="M86.2123 43.9112C82.7236 43.9294 79.6916 44.7697 77.1527 46.0117C76.2211 44.1669 75.2896 42.523 75.1252 41.3175C74.9426 39.9111 74.7234 39.0526 74.9426 37.3722C75.1618 35.6918 76.1481 33.299 76.1298 33.1163C76.1116 32.9337 75.9106 32.0752 73.9014 32.0569C71.8923 32.0387 70.157 32.4405 69.9561 32.9702C69.7552 33.4999 69.3716 34.7054 69.1159 35.9475C68.7689 37.774 65.0975 44.2948 62.997 47.7104C62.3212 46.377 61.7367 45.208 61.6088 44.2765C61.4262 42.8701 61.207 42.0116 61.4262 40.3312C61.6454 38.6507 62.6317 36.258 62.6134 36.0753C62.5952 35.8927 62.3943 35.0342 60.3851 35.0159C58.3759 34.9977 56.6407 35.3995 56.4397 35.9292C56.2388 36.4589 56.0196 37.701 55.5995 38.9065C55.1794 40.112 50.3026 50.9981 49.024 53.811C48.3664 55.254 47.8002 56.4047 47.3984 57.1901C47.3984 57.1901 47.3801 57.2449 47.3253 57.3362C46.9783 58.0121 46.7773 58.3774 46.7773 58.3774C46.7773 58.3774 46.7773 58.3774 46.7773 58.3956C46.5034 58.8888 46.2111 59.3454 46.065 59.3454C45.9554 59.3454 45.7545 58.0303 46.1015 56.2403C46.8321 52.4594 48.5674 46.5779 48.5491 46.377C48.5491 46.2674 48.8779 45.2446 47.4166 44.7149C45.9919 44.1852 45.4805 45.0619 45.3526 45.0619C45.2248 45.0619 45.1335 45.3724 45.1335 45.3724C45.1335 45.3724 46.7225 38.7603 42.1014 38.7603C39.2155 38.7603 35.2336 41.9203 33.261 44.7697C32.0189 45.4455 29.3704 46.8884 26.5393 48.441C25.4616 49.0438 24.3475 49.6465 23.3063 50.2127C23.2333 50.1397 23.1602 50.0484 23.0871 49.9753C17.4979 44.0025 7.15972 39.7832 7.59809 31.7647C7.76248 28.8422 8.76707 21.1708 27.4526 11.8554C42.832 4.27529 55.0698 6.37581 57.1886 11.0335C60.2207 17.6821 50.6313 30.0295 34.7405 31.8195C28.6763 32.4953 25.4982 30.1573 24.6945 29.2806C23.8543 28.3673 23.7264 28.3125 23.4159 28.4952C22.9045 28.7692 23.2333 29.5911 23.4159 30.066C23.8908 31.3081 25.8452 33.4999 29.1512 34.5776C32.0737 35.5274 39.1789 36.0571 47.7819 32.7328C57.4078 29.0066 64.9331 18.6502 62.723 9.97409C60.5129 1.17017 45.9006 -1.73402 32.0737 3.17937C23.8543 6.10183 14.9408 10.7047 8.52962 16.6958C0.912957 23.8193 -0.292557 30.0112 0.200608 32.6049C1.97235 41.8107 14.6668 47.8017 19.7446 52.2402C19.4889 52.3863 19.2514 52.5142 19.0505 52.6238C16.5116 53.8841 6.83094 58.9436 4.41991 64.2954C1.6801 70.3595 4.85828 74.7066 6.9588 75.2911C13.4795 77.0994 20.1829 73.8482 23.7812 68.4781C27.3795 63.1081 26.9411 56.1307 25.279 52.9343C25.2607 52.8978 25.2425 52.8612 25.2059 52.8247C25.8635 52.4411 26.5393 52.0393 27.1968 51.6557C28.4937 50.8886 29.7723 50.1762 30.8682 49.5917C30.2472 51.2904 29.7905 53.3179 29.5714 56.2403C29.2974 59.6742 30.7038 64.131 32.5486 65.8844C33.3706 66.6516 34.3386 66.6699 34.9596 66.6699C37.115 66.6699 38.083 64.8798 39.1607 62.7611C40.4758 60.1674 41.663 57.1536 41.663 57.1536C41.663 57.1536 40.1835 65.2999 44.2019 65.2999C45.6632 65.2999 47.1427 63.4003 47.8002 62.4323C47.8002 62.4505 47.8002 62.4505 47.8002 62.4505C47.8002 62.4505 47.8367 62.3958 47.9098 62.2679C48.0559 62.0304 48.1473 61.8843 48.1473 61.8843C48.1473 61.8843 48.1473 61.8661 48.1473 61.8478C48.7317 60.8249 50.0469 58.5052 52.0012 54.6512C54.5219 49.683 56.9512 43.4728 56.9512 43.4728C56.9512 43.4728 57.1703 44.9888 57.9192 47.5095C58.3576 48.989 59.2709 50.6146 60.0015 52.1854C59.417 53.0073 59.0517 53.464 59.0517 53.464C59.0517 53.464 59.0517 53.464 59.07 53.4822C58.5951 54.1033 58.0836 54.7791 57.5174 55.4366C55.5265 57.8111 53.152 60.5327 52.8232 61.3181C52.4396 62.2496 52.5309 62.9254 53.2616 63.4734C53.7913 63.8753 54.7411 63.93 55.7091 63.8752C57.4991 63.7474 58.7594 63.309 59.3805 63.035C60.3485 62.688 61.481 62.1583 62.5404 61.3729C64.4948 59.9299 65.682 57.8659 65.5724 55.1444C65.5176 53.6466 65.0245 52.1489 64.4217 50.7424C64.6044 50.4867 64.7688 50.231 64.9514 49.9753C68.0383 45.4637 70.431 40.5138 70.431 40.5138C70.431 40.5138 70.6502 42.0299 71.3991 44.5505C71.7644 45.829 72.5133 47.2172 73.1708 48.5689C70.2666 50.9251 68.4766 53.6649 67.8373 55.4549C66.6866 58.7792 67.5816 60.277 69.2803 60.624C70.0474 60.7884 71.1434 60.4231 71.947 60.076C72.9699 59.7473 74.1754 59.181 75.3261 58.3408C77.2805 56.8979 79.1619 54.8887 79.0523 52.1671C78.9975 50.9251 78.6687 49.7013 78.2121 48.5141C80.6779 47.4912 83.8561 46.925 87.911 47.3999C96.6053 48.4227 98.3223 53.8475 97.9935 56.1307C97.6647 58.4139 95.8382 59.6559 95.2354 60.0395C94.6327 60.4231 94.4317 60.5509 94.4865 60.8249C94.5596 61.2268 94.8519 61.2085 95.3633 61.1354C96.0756 61.0076 99.9296 59.2906 100.094 55.0896C100.368 49.7196 95.2537 43.8564 86.2123 43.9112ZM19.1418 66.5237C16.2559 69.6654 12.2375 70.8526 10.5023 69.848C8.63922 68.7704 9.36983 64.131 12.9133 60.8067C15.0686 58.7792 17.845 56.8979 19.6898 55.7471C20.1099 55.4914 20.7309 55.1261 21.4798 54.6695C21.6076 54.5964 21.6807 54.5599 21.6807 54.5599C21.8268 54.4686 21.9729 54.3772 22.1191 54.2859C23.4159 59.0349 22.1739 63.2177 19.1418 66.5237ZM40.147 52.2402C39.1424 54.6878 37.0419 60.9528 35.7633 60.6057C34.6674 60.3135 33.9916 55.5645 35.5441 50.8703C36.3295 48.5141 37.9917 45.7012 38.9598 44.6053C40.5306 42.8518 42.2658 42.2673 42.6859 42.9796C43.2156 43.9112 40.768 50.7059 40.147 52.2402ZM57.4809 60.5327C57.0608 60.7519 56.6589 60.898 56.4763 60.7884C56.3484 60.7153 56.6589 60.4231 56.6589 60.4231C56.6589 60.4231 58.8325 58.0851 59.691 57.0257C60.1841 56.4047 60.7686 55.6741 61.3897 54.8521C61.3897 54.9252 61.3897 55.0165 61.3897 55.0896C61.3897 57.8842 58.6864 59.7655 57.4809 60.5327ZM70.8511 57.4824C70.5406 57.2632 70.5954 56.5326 71.6365 54.2494C72.0384 53.3544 72.9882 51.8566 74.6138 50.4137C74.7964 50.9981 74.9243 51.5644 74.906 52.0941C74.8878 55.6193 72.3671 56.9344 70.8511 57.4824Z" fill="#CD6799"/>
</svg>

<svg xmlns="http://www.w3.org/2000/svg" width="80" height="80" viewBox="0 0 101 76" fill="none" xmlns:v="https://vecta.io/nano"><path d="M86.212 43.911c-3.489.018-6.521.858-9.06 2.1-.932-1.845-1.863-3.489-2.027-4.694-.183-1.406-.402-2.265-.183-3.945s1.206-4.073 1.187-4.256-.219-1.041-2.228-1.059-3.744.384-3.945.913a22.04 22.04 0 0 0-.84 2.977c-.347 1.827-4.018 8.347-6.119 11.763-.676-1.333-1.26-2.502-1.388-3.434-.183-1.406-.402-2.265-.183-3.945s1.206-4.073 1.187-4.256-.219-1.041-2.228-1.059-3.744.384-3.945.913-.42 1.772-.84 2.977-5.297 12.092-6.575 14.904a84.2 84.2 0 0 1-1.626 3.379s-.018.055-.073.146l-.548 1.041c-.274.511-.566.968-.712.968-.11 0-.31-1.315.037-3.105.731-3.781 2.466-9.662 2.448-9.863 0-.11.329-1.132-1.133-1.662-1.425-.53-1.936.347-2.064.347s-.219.31-.219.31 1.589-6.612-3.032-6.612c-2.886 0-6.868 3.16-8.84 6.009l-6.722 3.671-3.233 1.772c-.073-.073-.146-.164-.219-.237C17.498 44.003 7.16 39.783 7.598 31.765c.164-2.923 1.169-10.594 19.855-19.909 15.379-7.58 27.617-5.48 29.736-.822 3.032 6.649-6.557 18.996-22.448 20.786-6.064.676-9.242-1.662-10.046-2.539-.84-.913-.968-.968-1.279-.785-.511.274-.183 1.096 0 1.571.475 1.242 2.429 3.434 5.735 4.512 2.923.95 10.028 1.48 18.631-1.845 9.626-3.726 17.151-14.083 14.941-22.759-2.21-8.804-16.822-11.708-30.649-6.795-8.219 2.922-17.133 7.525-23.544 13.516C.913 23.819-.293 30.011.201 32.605c1.772 9.206 14.466 15.197 19.544 19.635-.256.146-.493.274-.694.384-2.539 1.26-12.22 6.32-14.631 11.672-2.74 6.064.438 10.411 2.539 10.996 6.521 1.808 13.224-1.443 16.822-6.813s3.16-12.347 1.498-15.544c-.018-.037-.037-.073-.073-.11l1.991-1.169c1.297-.767 2.576-1.48 3.671-2.064-.621 1.699-1.078 3.726-1.297 6.649-.274 3.434 1.132 7.891 2.977 9.644.822.767 1.79.785 2.411.785 2.155 0 3.123-1.79 4.201-3.909 1.315-2.594 2.502-5.608 2.502-5.608S40.184 65.3 44.202 65.3c1.461 0 2.941-1.9 3.598-2.868 0 .018.037-.036.11-.164l.238-.384v-.037c.584-1.023 1.9-3.343 3.854-7.197 2.521-4.968 4.95-11.178 4.95-11.178s.219 1.516.968 4.037c.438 1.479 1.352 3.105 2.082 4.676-.584.822-.95 1.279-.95 1.279l.018.018c-.475.621-.986 1.297-1.553 1.954-1.991 2.375-4.365 5.096-4.694 5.882-.384.931-.292 1.607.438 2.155.53.402 1.48.457 2.447.402 1.79-.128 3.05-.566 3.671-.84.968-.347 2.101-.877 3.16-1.662 1.954-1.443 3.142-3.507 3.032-6.229-.055-1.498-.548-2.995-1.151-4.402.183-.256.347-.511.53-.767 3.087-4.512 5.48-9.461 5.48-9.461s.219 1.516.968 4.037c.365 1.279 1.114 2.667 1.772 4.018-2.904 2.356-4.694 5.096-5.334 6.886-1.151 3.324-.256 4.822 1.443 5.169.767.164 1.863-.201 2.667-.548 1.023-.329 2.228-.895 3.379-1.735 1.954-1.443 3.836-3.452 3.726-6.174-.055-1.242-.384-2.466-.84-3.653 2.466-1.023 5.644-1.589 9.699-1.114 8.694 1.023 10.411 6.448 10.082 8.731s-2.155 3.525-2.758 3.909-.804.511-.749.785c.073.402.365.384.877.31.712-.128 4.566-1.845 4.731-6.046.274-5.37-4.84-11.233-13.882-11.178zm-67.07 22.613c-2.886 3.142-6.904 4.329-8.639 3.324-1.863-1.078-1.132-5.717 2.411-9.041 2.155-2.027 4.932-3.909 6.777-5.06l1.79-1.078c.128-.073.201-.11.201-.11l.438-.274c1.297 4.749.055 8.932-2.977 12.238zM40.147 52.24c-1.005 2.448-3.105 8.713-4.384 8.365-1.096-.292-1.772-5.041-.219-9.735.785-2.356 2.448-5.169 3.416-6.265 1.571-1.754 3.306-2.338 3.726-1.626.53.932-1.918 7.726-2.539 9.261zm17.334 8.292c-.42.219-.822.365-1.005.256-.128-.073.183-.365.183-.365s2.174-2.338 3.032-3.397l1.699-2.174v.237c0 2.795-2.703 4.676-3.909 5.443zm13.37-3.05c-.311-.219-.256-.95.785-3.233.402-.895 1.352-2.393 2.977-3.836.183.584.311 1.151.292 1.68-.018 3.525-2.539 4.84-4.055 5.388z" fill="#cd6799"/></svg>
